X:1
T:The Bucks Of Oranmore
R:reel
M:4/4
L:1/8
K:D
dB|A2FA ~A2dB|ADFA BEEB|A2FA ~A2Bd|egfd efdB|
|A2FA ~A2dB|ADFA BE~E2|D2DF AFAB|defd efdB|
|AD~D2 ADBD|ADFA BE~E2|AD~D2 A2Bd|egfd efdB|
|AD~D2 ADBD|ADFA BE~E2|D2DF AFAB|defd efdf|
|~a2fd efdf|~a2fd edBd|~a2fd edef|gefd edBd|
|~a2fd efdf|~a2fd edBd|fa~a2 bfaf|defd e2de|
|~f2df efde|~f2df edBA|~f2df edef|gefd edBA|
|~f2df efde|~f2df edBA|fa~a2 bfaf|defd e2dB|
|Adfd edfd|Adfd edBd|Adfd edef|gefd edBd|
|Adfd edfd|Adfd edBd|fa~a2 bfaf|defd e2dB|